X:364
T:AIR XXVIII. Bessy Bell end Mary Grey.
B:Joseph Mitchell: "The Highland Fair" (1731)
Z:Jack Campin <http://www.purr.demon.co.uk/jack/jack.html>
M:6/8
L:1/8
K:C
 C    |(EF)G (GA)_B  |(AG)A F2F     |(EF)G (GA)G|e3 f2
(e/f/)| g2G  (GA)_B  |(AG)F f2(e/f/)|(gf)e (dc)B|c3 e2||
(e/f/)|(ge)c (e/f/g)e|(dB)d f2(e/f/)|(ge)c (eg)c|e3 f2
(e/f/)|(ge)c (eg)e   |(dB)d f2(e/f/)|(gf)e  dcB |c3 e2|]


